X: 1802
T: Phyllis McCoy's Schottische
B: australian traditional tunes wiki
M:4/4
L:1/8
R: Schottische
Q: 1/4=100
K:D
V:1 
|:A2|"D"(3fed A>A (3fed A>A|"Em"(3gfe B>B (3gfe B>B|"A7"c>B c>d e>g f>e|1"D"(3dfe (3dcB "A7"A2:|2"D"d2"G"d2"D"d2 A>G||
"D"F2F2 "G"G>F G>B|"D"A2d4 d>c|"G"B>A B>c "A7"e>d c>B|"D"A6 (3ABA|
"A7"G2E4 (3ABA|"D"F2D4"Bm"F>F|"E7"E2d2c2B2|"A7"A>B c>B (3ABA (3GFE|
"D" F4-F>F G>B|A4-A>A A>d|"D7"f2d2"A7"c2=c2|"G"B6 B>c|
"E7"d6 (3BAB|"D"A6 (3fed|"A7"c2g2f2e2|"D"d6||
% abcbook-tune_id 6342d53ad5b3dab8796b85ae


% abcbook-boost 0
% abcbook-tablature 
% abcbook-transpose 
% abcbook-lastupdated 1665324384785
% abcbook-soundfonts 
% abcbook-repeats 1
% NFF Book 2007

